svg/fluentui-system-icons/ic_fluent_picture_in_picture_20_filled.svg

<svg width="20" height="20" viewBox="0 0 20 20" fill="none" xmlns="http://www.w3.org/2000/svg">
<path d="M4.75 3C3.23122 3 2 4.23122 2 5.75V12.25C2 13.7688 3.23122 15 4.75 15H9V12.5C9 11.1193 10.1193 10 11.5 10H17.5C17.6712 10 17.8384 10.0172 18 10.05V5.75C18 4.23122 16.7688 3 15.25 3H4.75ZM18 11.0854C17.8436 11.0301 17.6753 11 17.5 11H11.5C10.6716 11 10 11.6716 10 12.5V16.5C10 17.3284 10.6716 18 11.5 18H17.5C18.3284 18 19 17.3284 19 16.5V12.5C19 11.8469 18.5826 11.2913 18 11.0854Z" fill="#212121"/>
</svg>

<svg xmlns="http://www.w3.org/2000/svg" width="20" height="20"><path d="M4.75 3A2.75 2.75 0 0 0 2 5.75v6.5A2.75 2.75 0 0 0 4.75 15H9v-2.5a2.5 2.5 0 0 1 2.5-2.5h6c.171 0 .338.017.5.05v-4.3A2.75 2.75 0 0 0 15.25 3H4.75ZM18 11.085a1.497 1.497 0 0 0-.5-.085h-6a1.5 1.5 0 0 0-1.5 1.5v4a1.5 1.5 0 0 0 1.5 1.5h6a1.5 1.5 0 0 0 1.5-1.5v-4a1.5 1.5 0 0 0-1-1.415Z"/></svg>
